!!!OTL: Dank - und Freudenlied
!!!ARE: Europa, Mitteleuropa, Deutschland
!!!SCT: A0623B
!!!YEM: Copyright 1995, estate of Helmut Schaffrath.
**kern
*ICvox
*Ivox
*M4/2
*k[b-]
*F:
{2f
2f
2a
=1
2g
2f
2g
2g
=2
1a}
{1f
=3
2a
2b-
2cc
2a
=4
1g
1f
=5
2r}
{2f
2f
2a
=6
2g
2f
2g
2g
=7
1a}
{1f
=8
2a
2b-
2cc
2a
=9
1g
1f
=10
2r}
{2a
2a
2g
=11
2f
2e
2f
2d
=12
1c
2r}
{2c
=13
2f
2f
2f
2e
=14
2f
2g
1a}
=15
{1f
2a
2b-
=16
2cc
2a
1g
=17
0f
=18
2r}
==
!!!AGN: Romanze, Ballade, Lied, religioeses Lied
!! Klugs Gsgb 1535 und Schumann 1539
!!!ONB: ESAC (Essen Associative Code) Database: ALTDEU
!!!AMT: simple quadruple
!!!AIN: vox
!!!EED: Helmut Schaffrath
!!!EEV: 1.0
*-
